X:147
T:Make hay whilst sun shines - Hard
%%VWML:SBG-1-2-620-0
F:http://www.vwml.org/record/SBG/1/2/620
Z:Original Sibelius transcriptions by M. & S. Graebe
M:6/8
I:linebreak $
K:G
V:1 treble nm="P1"
V:1
 G | GD G A2 B | e2 d2 z A | AB c d2 c | B4 z G | GD G A2 B |$ e2 d2 z d | ^cB c d2 e | d4 z B | %9
 B=c d e2 f | e2 d2 z ^c |$ cB A B2 c | d4 z G | BG A B2 c | e2 d2 z A | AG F A2 B | G4 z x | %17




